X:1
T:Johnny Lad
M:4/4
L:1/8
K:G
 B| BG GD DGG-G| AA E2 A3 A| cA AG FF FF| FE DC B,2 B,| C| D2 GA B2 AG|\
 A2 GE E3 A| AB c/2 A3/2 FF FE| DD EF G3||
